dist/images/icons/phone.svg

<svg width="24" height="24" viewBox="0 0 24 24" fill="none" xmlns="http://www.w3.org/2000/svg">
<path fill-rule="evenodd" clip-rule="evenodd" d="M14.2212 3.5554C14.3288 3.1554 14.7403 2.91835 15.1403 3.02592C16.5386 3.40199 17.8136 4.13889 18.8375 5.1628C19.8614 6.18671 20.5983 7.46168 20.9744 8.86002C21.082 9.26002 20.8449 9.67149 20.4449 9.77907C20.0449 9.88665 19.6334 9.64959 19.5259 9.24959C19.218 8.10507 18.6149 7.06151 17.7768 6.22346C16.9388 5.3854 15.8952 4.78226 14.7507 4.47445C14.3507 4.36687 14.1137 3.9554 14.2212 3.5554Z" fill="#3197F5"/>
<path fill-rule="evenodd" clip-rule="evenodd" d="M13.4444 6.45384C13.552 6.05384 13.9634 5.81678 14.3634 5.92436C15.2532 6.16365 16.0645 6.63254 16.716 7.28406C17.3675 7.93558 17.8364 8.74685 18.0757 9.63662C18.1833 10.0366 17.9462 10.4481 17.5462 10.5557C17.1462 10.6632 16.7347 10.4262 16.6272 10.0262C16.4561 9.39023 16.121 8.81038 15.6553 8.34472C15.1897 7.87905 14.6098 7.54392 13.9739 7.37289C13.5739 7.26531 13.3368 6.85384 13.4444 6.45384Z" fill="#3197F5"/>
<path fill-rule="evenodd" clip-rule="evenodd" d="M7.7678 3.77974C7.7678 3.77974 7.7678 3.77974 7.7678 3.77974V3.77974ZM7.76854 3.78149L9.65222 8.17674L8.09343 10.5585C7.95163 10.7734 7.8678 11.0213 7.85009 11.2782C7.83232 11.5359 7.8817 11.7938 7.99341 12.0267L8.66965 11.7024L7.99593 12.0319C8.84769 13.7733 10.2592 15.1784 12.0044 16.0222L12.0097 16.0247C12.2441 16.1358 12.5033 16.1839 12.7618 16.1643C13.0195 16.1448 13.2678 16.0588 13.4823 15.9146C13.483 15.9141 13.4836 15.9136 13.4843 15.9132L15.828 14.3504L20.219 16.2322C20.102 17.1346 19.6614 17.964 18.9783 18.5654C18.2935 19.1683 17.4124 19.5009 16.5 19.5009M9.34757 11.3814L10.9073 8.99816C11.0428 8.7912 11.1249 8.55395 11.1465 8.30754C11.1681 8.06113 11.1284 7.81321 11.0309 7.58586L9.14839 3.19326C9.14821 3.19283 9.14803 3.1924 9.14784 3.19197C9.02082 2.89372 8.80044 2.64474 8.5198 2.48243C8.23875 2.31989 7.91249 2.25309 7.59018 2.2921L7.58521 2.29272C6.31824 2.45463 5.15372 3.0728 4.30971 4.03149C3.4657 4.99017 3.00007 6.22363 3 7.50091C3 11.0813 4.42232 14.5151 6.95406 17.0469C9.4858 19.5786 12.9196 21.0009 16.5 21.0009C17.7773 21.0009 19.0108 20.5352 19.9695 19.6912C20.9281 18.8472 21.5463 17.6827 21.7082 16.4157L21.7089 16.4108C21.7479 16.0885 21.6811 15.7622 21.5185 15.4811C21.3562 15.2004 21.1071 14.98 20.8087 14.853C20.8084 14.8529 20.808 14.8527 20.8077 14.8525L16.4189 12.9716C16.1896 12.8734 15.9393 12.8338 15.6908 12.8567C15.4423 12.8795 15.2035 12.9639 14.9958 13.1024L12.6488 14.6675C11.2128 13.9708 10.0508 12.8142 9.34757 11.3814ZM7.76854 3.78149C6.86615 3.89849 6.03696 4.33957 5.43557 5.02267C4.83266 5.70749 4.50005 6.58859 4.5 7.50099C4.5 10.6836 5.76428 13.7358 8.01472 15.9862C10.2651 18.2367 13.3174 19.5009 16.5 19.5009" fill="#3197F5"/>
</svg>

<svg width="24" height="24" fill="none" xmlns="http://www.w3.org/2000/svg"><path fill-rule="evenodd" clip-rule="evenodd" d="M14.221 3.555a.75.75 0 01.92-.53 8.264 8.264 0 015.833 5.835.75.75 0 01-1.448.39 6.764 6.764 0 00-4.775-4.776.75.75 0 01-.53-.919zm-.777 2.899a.75.75 0 01.92-.53 5.258 5.258 0 013.712 3.713.75.75 0 01-1.449.39 3.759 3.759 0 00-2.653-2.654.75.75 0 01-.53-.92zM7.768 3.78zm0 .001l1.884 4.396-1.559 2.382a1.493 1.493 0 00-.1 1.468l.677-.325-.674.33a8.657 8.657 0 004.008 3.99l.006.003a1.493 1.493 0 001.472-.11l.002-.002 2.344-1.563 4.391 1.882a3.75 3.75 0 01-3.719 3.269m-7.152-8.12l1.56-2.383a1.5 1.5 0 00.123-1.412L9.148 3.193v-.001a1.497 1.497 0 00-1.558-.9h-.005A5.25 5.25 0 003 7.502 13.5 13.5 0 0016.5 21a5.25 5.25 0 005.208-4.585v-.005a1.498 1.498 0 00-.9-1.559l-4.39-1.88a1.5 1.5 0 00-1.422.13l-2.347 1.566a7.158 7.158 0 01-3.301-3.287zm-1.58-7.6A3.75 3.75 0 004.5 7.501a12 12 0 0012 12" fill="#3197F5"/></svg>
